svgs/purpletv.svg

<svg xmlns="http://www.w3.org/2000/svg" viewBox="0 0 192 192"><path d="M27.301 110.224V44.448l14.277-14.224L55.856 16h108.843v81.155l-25.229 25.198-25.229 25.199H55.856l-14.278 14.224L27.301 176Zm78.938 2.247h25.508l11.36-11.293 11.361-11.294v-62.19H62.381v102.964l9.175-9.093 9.175-9.094ZM82.845 69.352V42.31h57.006v38.835l-7.72 7.624-7.72 7.624H82.845Zm33.869 17.313c1.808-1.636 2.673-4.473 2.673-8.77v-6.351H90.153v17.54h11.944c9.063 0 12.589-.583 14.617-2.419Z"/></svg>

<svg
    xmlns="http://www.w3.org/2000/svg"
    viewBox="0 0 192 192"
    id="vector">
    <path
        id="path"
        d="M 27.301 110.224 L 27.301 44.448 L 41.578 30.224 L 55.856 16 L 164.699 16 L 164.699 97.155 L 139.47 122.353 L 114.241 147.552 L 55.856 147.552 L 41.578 161.776 L 27.301 176 Z M 106.239 112.471 L 131.747 112.471 L 143.107 101.178 L 154.468 89.884 L 154.468 27.694 L 62.381 27.694 L 62.381 130.658 L 71.556 121.565 L 80.731 112.471 Z M 82.845 69.352 L 82.845 42.31 L 139.851 42.31 L 139.851 81.145 L 132.131 88.769 L 124.411 96.393 L 82.845 96.393 Z M 116.714 86.665 C 118.522 85.029 119.387 82.192 119.387 77.895 L 119.387 71.544 L 90.153 71.544 L 90.153 89.084 L 102.097 89.084 C 111.16 89.084 114.686 88.501 116.714 86.665 Z"
        fill="#000000"
        stroke-width="12"/>
</svg>
